communes/2217.svg

<?xml version="1.0" encoding="UTF-8" standalone="no"?>
<svg
   xmlns:i="http://ns.adobe.com/AdobeIllustrator/10.0/"
   xmlns:dc="http://purl.org/dc/elements/1.1/"
   xmlns:cc="http://creativecommons.org/ns#"
   xmlns:rdf="http://www.w3.org/1999/02/22-rdf-syntax-ns#"
   xmlns:svg="http://www.w3.org/2000/svg"
   xmlns="http://www.w3.org/2000/svg"
   xmlns:xlink="http://www.w3.org/1999/xlink"
   xmlns:sodipodi="http://sodipodi.sourceforge.net/DTD/sodipodi-0.dtd"
   xmlns:inkscape="http://www.inkscape.org/namespaces/inkscape"
   height="763"
   width="603"
   version="1.0"
   id="svg20"
   sodipodi:version="0.32"
   inkscape:version="0.43"
   sodipodi:docname="2217.svg">
  <metadata
     id="metadata31">
    <rdf:RDF>
      <cc:Work
         rdf:about="">
        <dc:format>image/svg+xml</dc:format>
        <dc:type
           rdf:resource="http://purl.org/dc/dcmitype/StillImage" />
        <dc:date />
        <dc:creator>
          <cc:Agent>
            <dc:title />
          </cc:Agent>
        </dc:creator>
        <cc:license
           rdf:resource="http://creativecommons.org/licenses/GPL/2.0/" />
        <dc:coverage />
        <dc:description />
        <dc:subject>
          <rdf:Bag />
        </dc:subject>
        <dc:language />
        <dc:title />
      </cc:Work>
      <cc:License
         rdf:about="http://creativecommons.org/licenses/GPL/2.0/">
        <cc:permits
           rdf:resource="http://web.resource.org/cc/Reproduction" />
        <cc:permits
           rdf:resource="http://web.resource.org/cc/Distribution" />
        <cc:requires
           rdf:resource="http://web.resource.org/cc/Notice" />
        <cc:permits
           rdf:resource="http://web.resource.org/cc/DerivativeWorks" />
        <cc:requires
           rdf:resource="http://web.resource.org/cc/ShareAlike" />
        <cc:requires
           rdf:resource="http://web.resource.org/cc/SourceCode" />
      </cc:License>
    </rdf:RDF>
  </metadata>
  <defs
     id="defs29">
    <linearGradient
       id="linearGradient2893">
      <stop
         style="stop-color:#ffffff;stop-opacity:0.3137255;"
         offset="0"
         id="stop2895" />
      <stop
         id="stop2897"
         offset="0.19"
         style="stop-color:#ffffff;stop-opacity:0.25098041;" />
      <stop
         style="stop-color:#6b6b6b;stop-opacity:0.1254902;"
         offset="0.60000002"
         id="stop2901" />
      <stop
         style="stop-color:#000000;stop-opacity:0.1254902;"
         offset="1"
         id="stop2899" />
    </linearGradient>
    <radialGradient
       inkscape:collect="always"
       xlink:href="#linearGradient2893"
       id="radialGradient3236"
       gradientUnits="userSpaceOnUse"
       gradientTransform="matrix(1.215027,1.531577e-24,1.464684e-23,1.266667,-839.1924,-490.4894)"
       cx="858.04236"
       cy="579.93323"
       fx="858.04236"
       fy="579.93323"
       r="300" />
  </defs>
  <sodipodi:namedview
     inkscape:window-height="808"
     inkscape:window-width="1152"
     inkscape:pageshadow="2"
     inkscape:pageopacity="0.0"
     guidetolerance="10.0"
     gridtolerance="10.0"
     objecttolerance="10.0"
     borderopacity="1.0"
     bordercolor="#666666"
     pagecolor="#ffffff"
     id="base"
     inkscape:zoom="0.84010485"
     inkscape:cx="301.5"
     inkscape:cy="381.5"
     inkscape:window-x="-4"
     inkscape:window-y="-4"
     inkscape:current-layer="layer2"
     showgrid="false"
     showguides="true"
     inkscape:guide-bbox="true"
     inkscape:document-rotation="0" />
  <desc
     id="desc22">Coat of Arms of Canton of Freiburg (Fribourg)</desc>
  <g
     inkscape:groupmode="layer"
     id="layer1"
     inkscape:label="Fond écu"
     style="opacity:1">
    <path
       id="path1899"
       d="M 1.5,1.49998 L 1.5,460.3679 C 1.5,626.6785 135.81456,761.5 301.49999,761.5 C 467.18543,761.5 601.5,626.6785 601.5,460.3679 L 601.5,1.49998 L 1.5,1.49998 z "
       style="fill:#ffffff;fill-opacity:1" />
    <path
       style="fill:#e20909;fill-opacity:1;stroke:#000000;stroke-opacity:1"
       d="M 101.84375,1.5 L 101.84375,685.125 C 130.66271,710.93697 164.48264,731.23996 201.65625,744.40625 L 201.65625,1.5 L 101.84375,1.5 z M 301.5,1.5 L 301.5,761.5 C 336.50784,761.5 370.108,755.46944 401.34375,744.40625 L 401.34375,1.5 L 301.5,1.5 z M 501.15625,1.5 L 501.15625,685.125 C 558.70038,633.58507 596.3221,560.10928 601,477.78125 L 601,1.5 L 501.15625,1.5 z "
       id="path1530" />
    <g
       id="g2006"
       inkscape:label="Fond écu"
       transform="translate(269.8246,986.6106)" />
  </g>
  <g
     inkscape:groupmode="layer"
     id="layer2"
     inkscape:label="Meubles"
     style="opacity:1;display:inline">
    <rect
       style="fill:#ffffff;fill-opacity:1;stroke:none"
       x="1.500016"
       y="1.4999663"
       i:knockout="Off"
       width="600.00006"
       height="253.33565"
       id="rect2850" />
    <path
       style="fill:none;fill-rule:evenodd;stroke:#000000;stroke-width:3;stroke-linecap:butt;stroke-linejoin:miter;stroke-miterlimit:4;stroke-dasharray:none;stroke-opacity:1"
       d="M 1.5,254.83203 L 601.5,254.83203"
       id="path4660" />
    <path
       style="fill:#5ab532;stroke:#000000;stroke-width:2;stroke-linecap:round;stroke-linejoin:round;stroke-miterlimit:4;stroke-dasharray:none"
       d="M 184.77637,217.80715 C 183.22157,216.23395 172.52586,205.28353 170.7326,204.40408 C 166.28489,202.22275 166.08935,203.41538 163.71735,203.8519 C 157.05303,205.07703 148.2756,195.63984 141.15965,192.1516 C 134.04318,188.66255 123.04932,186.031 104.60208,187.1271 C 86.154811,188.22313 86.795138,169.41331 94.315548,167.64591 C 101.83459,165.87823 93.241778,160.12498 86.141653,158.82618 C 79.041459,157.52738 63.578922,159.43312 59.252889,153.47226 C 55.275729,147.99324 51.364424,147.87273 47.302949,145.04716 C 43.241482,142.22153 34.111843,127.60619 43.679997,124.34069 C 53.246805,121.07489 61.269969,127.18869 61.924665,124.17411 C 62.579649,121.1582 51.300973,115.30739 41.683252,112.00471 C 32.065524,108.70207 28.541143,101.13467 26.37638,97.50632 C 24.211608,93.878033 16.419608,85.834944 23.760589,78.962155 C 28.393138,74.624014 32.777979,82.60251 35.442684,79.555671 C 37.407009,77.310566 36.182611,73.886507 30.49298,69.492696 C 24.8032,65.099554 25.207792,49.640554 35.36316,44.802269 C 45.518833,39.962603 56.34516,44.499846 61.412944,52.888196 C 66.480688,61.276528 73.060737,59.304909 73.060737,59.304909 C 73.060737,59.304909 66.649829,45.767087 78.365759,47.339381 C 90.081618,48.911662 95.166411,59.490471 99.109821,67.390682 C 103.05359,75.292421 104.19357,84.770503 111.42839,83.183587 C 111.42839,83.183587 107.70363,69.74275 116.19669,69.158724 C 124.68991,68.573997 131.2178,73.635595 135.16157,88.337198 C 139.10415,103.04066 142.1077,114.13748 144.96109,115.72924 C 144.96109,115.72924 145.18037,106.78886 149.86288,109.02036 C 154.54537,111.25192 158.58901,122.09031 157.68165,136.46798 C 156.77421,150.84564 160.24733,162.04581 162.51291,165.20955 C 162.51291,165.20955 163.33563,160.28725 166.18915,161.87841 C 169.04275,163.46953 170.87186,170.91201 172.38165,180.95615 C 173.89069,191.00015 173.65099,199.2698 174.62432,200.45326 C 175.59764,201.63676 185.72888,212.57815 188.3239,214.62434 C 186.43591,216.48834 186.49248,217.18656 184.77637,217.80715 z "
       id="path2911" />
    <path
       style="fill:#5ab532;stroke:#000000;stroke-width:1.83513367;stroke-linecap:round;stroke-linejoin:round;stroke-miterlimit:4;stroke-dasharray:none"
       i:knockout="Off"
       d="M 418.22363,217.80715 C 419.77843,216.23395 430.47414,205.28353 432.2674,204.40408 C 436.71511,202.22275 436.91065,203.41538 439.28265,203.8519 C 445.94697,205.07703 454.7244,195.63984 461.84035,192.1516 C 468.95682,188.66255 479.95068,186.031 498.39792,187.1271 C 516.84519,188.22313 516.20486,169.41331 508.68445,167.64591 C 501.16541,165.87823 509.75822,160.12498 516.85835,158.82618 C 523.95854,157.52738 539.42108,159.43312 543.74711,153.47226 C 547.72427,147.99324 551.63558,147.87273 555.69705,145.04716 C 559.75852,142.22153 568.88816,127.60619 559.32001,124.34069 C 549.7532,121.07489 541.73003,127.18869 541.07534,124.17411 C 540.42035,121.1582 551.69903,115.30739 561.31675,112.00471 C 570.93448,108.70207 574.45886,101.13467 576.62362,97.50632 C 578.78839,93.878033 586.58039,85.834944 579.23941,78.962155 C 574.60686,74.624014 570.22202,82.60251 567.55732,79.555671 C 565.59299,77.310566 566.81739,73.886507 572.50702,69.492696 C 578.1968,65.099554 577.79221,49.640554 567.63684,44.802269 C 557.48117,39.962603 546.65484,44.499846 541.58706,52.888196 C 536.51931,61.276528 529.93927,59.304909 529.93927,59.304909 C 529.93927,59.304909 536.35017,45.767087 524.63424,47.339381 C 512.91838,48.911662 507.83359,59.490471 503.89018,67.390682 C 499.94641,75.292421 498.80643,84.770503 491.57161,83.183587 C 491.57161,83.183587 495.29637,69.74275 486.80331,69.158724 C 478.31009,68.573997 471.7822,73.635595 467.83843,88.337198 C 463.89585,103.04066 460.8923,114.13748 458.03891,115.72924 C 458.03891,115.72924 457.81963,106.78886 453.13712,109.02036 C 448.45463,111.25192 444.41099,122.09031 445.31835,136.46798 C 446.22579,150.84564 442.75267,162.04581 440.48709,165.20955 C 440.48709,165.20955 439.66437,160.28725 436.81085,161.87841 C 433.95725,163.46953 432.12814,170.91201 430.61835,180.95615 C 429.10931,191.00015 429.34901,199.2698 428.37568,200.45326 C 427.40236,201.63676 417.27112,212.57815 414.6761,214.62434 C 416.56409,216.48834 416.50752,217.18656 418.22363,217.80715 z "
       id="path2098"
       sodipodi:nodetypes="csscscscscssscsccscssccccsscscscc" />
    <path
       id="path2512"
       d="M 407.37019,111.52586 C 404.08498,111.52586 401.02491,112.48169 398.44503,114.12506 C 399.52283,111.92121 400.12904,109.44449 400.12904,106.82548 C 400.12904,97.634059 392.67855,90.183575 383.48712,90.183575 C 374.29622,90.183575 366.84522,97.634059 366.84522,106.82548 C 366.84522,109.98872 367.72788,112.94564 369.26044,115.46403 L 317.42762,115.46403 L 317.42762,63.631208 C 319.94601,65.163777 322.90293,66.046435 326.06617,66.046435 C 335.2576,66.046435 342.70808,58.59543 342.70808,49.404534 C 342.70808,40.213623 335.2576,32.762618 326.06617,32.762618 C 323.44767,32.762618 320.97095,33.369339 318.76659,34.447128 C 320.40995,31.867248 321.36579,28.806671 321.36579,25.521483 C 321.36579,16.330573 313.91529,8.8795685 304.72387,8.8795685 C 295.53296,8.8795685 288.08196,16.330573 288.08196,25.521483 C 288.08196,28.806671 289.03779,31.867248 290.68115,34.446622 C 288.4768,33.369339 286.00058,32.762618 283.38157,32.762618 C 274.19066,32.762618 266.73965,40.213623 266.73965,49.404534 C 266.73965,58.59543 274.19066,66.046435 283.38157,66.046435 C 286.5448,66.046435 289.50173,65.163777 292.02012,63.631208 L 292.02012,115.46403 L 240.1873,115.46403 C 241.71986,112.94564 242.60252,109.98872 242.60252,106.82548 C 242.60252,97.634059 235.15152,90.183575 225.96061,90.183575 C 216.76972,90.183575 209.3187,97.634059 209.3187,106.82548 C 209.3187,109.44449 209.92543,111.9207 211.00321,114.12506 C 208.42333,112.48169 205.36276,111.52586 202.07756,111.52586 C 192.88665,111.52586 185.43564,118.97636 185.43564,128.16778 C 185.43564,137.35869 192.88665,144.80969 202.07756,144.80969 C 205.36276,144.80969 208.42333,143.85386 211.00271,142.2105 C 209.92543,144.41485 209.3187,146.89107 209.3187,149.51008 C 209.3187,158.70099 216.76972,166.152 225.96061,166.152 C 235.15152,166.152 242.60252,158.70099 242.60252,149.51008 C 242.60252,146.34685 241.71986,143.38992 240.1873,140.87153 L 292.02012,140.87153 L 292.02012,192.70435 C 289.50173,191.17179 286.5448,190.28913 283.38157,190.28913 C 274.19066,190.28913 266.73965,197.74013 266.73965,206.93104 C 266.73965,216.12246 274.19066,223.57295 283.38157,223.57295 C 286.00058,223.57295 288.4768,222.96672 290.68115,221.88894 C 289.03779,224.46882 288.08196,227.5294 288.08196,230.81409 C 288.08196,240.00551 295.53296,247.45601 304.72387,247.45601 C 313.91529,247.45601 321.36579,240.00551 321.36579,230.81409 C 321.36579,227.52889 320.40995,224.46882 318.76659,221.88894 C 320.97095,222.96672 323.44767,223.57295 326.06617,223.57295 C 335.2576,223.57295 342.70808,216.12246 342.70808,206.93104 C 342.70808,197.74013 335.2576,190.28913 326.06617,190.28913 C 322.90293,190.28913 319.94601,191.17179 317.42762,192.70435 L 317.42762,140.87153 L 369.26044,140.87153 C 367.72788,143.38992 366.84522,146.34685 366.84522,149.51008 C 366.84522,158.70099 374.29622,166.152 383.48712,166.152 C 392.67855,166.152 400.12904,158.70099 400.12904,149.51008 C 400.12904,146.89107 399.52283,144.41485 398.44503,142.2105 C 401.02491,143.85386 404.08549,144.80969 407.37019,144.80969 C 416.5616,144.80969 424.01209,137.35869 424.01209,128.16778 C 424.01209,118.97636 416.5616,111.52586 407.37019,111.52586 z "
       style="fill:#e20909;stroke:#000000;fill-opacity:1;stroke-opacity:1;stroke-width:2;stroke-miterlimit:4;stroke-dasharray:none" />
  </g>
  <g
     inkscape:groupmode="layer"
     id="layer3"
     inkscape:label="Reflet final"
     style="display:inline"
     sodipodi:insensitive="true">
    <path
       style="fill:url(#radialGradient3236);fill-opacity:1"
       d="M 1.5,1.5 L 1.5,460.3679 C 1.5,626.67854 135.81454,761.5 301.49993,761.5 C 467.1854,761.5 601.5,626.67854 601.5,460.3679 L 601.5,1.5 L 1.5,1.5 z "
       id="path2346" />
  </g>
  <g
     inkscape:groupmode="layer"
     id="layer4"
     inkscape:label="Contour final"
     style="display:inline">
    <path
       style="fill:none;fill-opacity:1;stroke:#000000;stroke-width:3;stroke-miterlimit:4;stroke-dasharray:none;stroke-opacity:1"
       d="M 1.5,1.5 L 1.5,460.36794 C 1.5,626.67854 135.81454,761.5 301.49993,761.5 C 467.1854,761.5 601.5,626.67854 601.5,460.36794 L 601.5,1.5 L 1.5,1.5 z "
       id="path3239" />
  </g>
</svg>

<?xml version="1.0" encoding="UTF-8"?>
<svg version="1.0" viewBox="0 0 603 763" xmlns="http://www.w3.org/2000/svg" xmlns:cc="http://creativecommons.org/ns#" xmlns:dc="http://purl.org/dc/elements/1.1/" xmlns:rdf="http://www.w3.org/1999/02/22-rdf-syntax-ns#" xmlns:xlink="http://www.w3.org/1999/xlink">
<metadata>
<rdf:RDF>
<cc:Work rdf:about="">
<dc:format>image/svg+xml</dc:format>
<dc:type rdf:resource="http://purl.org/dc/dcmitype/StillImage"/>
<dc:date/>
<dc:creator>
<cc:Agent>
<dc:title/>
</cc:Agent>
</dc:creator>
<cc:license rdf:resource="http://creativecommons.org/licenses/GPL/2.0/"/>
<dc:coverage/>
<dc:description/>
<dc:subject>
<rdf:Bag/>
</dc:subject>
<dc:language/>
<dc:title/>
</cc:Work>
<cc:License rdf:about="http://creativecommons.org/licenses/GPL/2.0/">
<cc:permits rdf:resource="http://web.resource.org/cc/Reproduction"/>
<cc:permits rdf:resource="http://web.resource.org/cc/Distribution"/>
<cc:requires rdf:resource="http://web.resource.org/cc/Notice"/>
<cc:permits rdf:resource="http://web.resource.org/cc/DerivativeWorks"/>
<cc:requires rdf:resource="http://web.resource.org/cc/ShareAlike"/>
<cc:requires rdf:resource="http://web.resource.org/cc/SourceCode"/>
</cc:License>
</rdf:RDF>
</metadata>
<defs>
<radialGradient id="a" cx="858.04" cy="579.93" r="300" gradientTransform="matrix(1.215 1.5316e-24 1.4647e-23 1.2667 -839.19 -490.49)" gradientUnits="userSpaceOnUse">
<stop stop-color="#fff" stop-opacity=".31373" offset="0"/>
<stop stop-color="#fff" stop-opacity=".25098" offset=".19"/>
<stop stop-color="#6b6b6b" stop-opacity=".12549" offset=".6"/>
<stop stop-opacity=".12549" offset="1"/>
</radialGradient>
</defs>
<desc>Coat of Arms of Canton of Freiburg (Fribourg)</desc>
<g>
<path d="m1.5 1.5v458.87c0 166.31 134.31 301.13 300 301.13 165.69 0 300-134.82 300-301.13v-458.87h-600z" fill="#fff"/>
<path d="m101.84 1.5v683.62c28.819 25.812 62.639 46.115 99.812 59.281v-742.91h-99.812zm199.66 0v760c35.008 0 68.608-6.0306 99.844-17.094v-742.91h-99.844zm199.66 0v683.62c57.544-51.54 95.166-125.02 99.844-207.34v-476.28h-99.844z" fill="#e20909" stroke="#000"/>
</g>
<g>
<rect x="1.5" y="1.5" width="600" height="253.34" fill="#fff"/>
<path d="m1.5 254.83h600" fill="none" stroke="#000" stroke-width="3"/>
<path d="m184.78 217.81c-1.5548-1.5732-12.251-12.524-14.044-13.403-4.4477-2.1813-4.6432-0.9887-7.0152-0.55218-6.6643 1.2251-15.442-8.2121-22.558-11.7-7.1165-3.489-18.11-6.1206-36.558-5.0245-18.447 1.096-17.807-17.714-10.287-19.481 7.519-1.7677-1.0738-7.5209-8.1739-8.8197-7.1002-1.2988-22.563 0.60694-26.889-5.3539-3.9772-5.479-7.8885-5.5995-11.95-8.4251-4.0615-2.8256-13.191-17.441-3.623-20.706 9.5668-3.2658 17.59 2.848 18.245-0.16658 0.65498-3.0159-10.624-8.8667-20.241-12.169-9.6177-3.3026-13.142-10.87-15.307-14.498-2.1648-3.6283-9.9568-11.671-2.6158-18.544 4.6325-4.3381 9.0174 3.6404 11.682 0.59352 1.9643-2.2451 0.73993-5.6692-4.9497-10.063-5.6898-4.3931-5.2852-19.852 4.8702-24.69 10.156-4.8397 20.982-0.30242 26.05 8.0859 5.0677 8.3883 11.648 6.4167 11.648 6.4167s-6.4109-13.538 5.305-11.966c11.716 1.5723 16.801 12.151 20.744 20.051 3.9438 7.9017 5.0837 17.38 12.319 15.793 0 0-3.7248-13.441 4.7683-14.025 8.4932-0.58473 15.021 4.4769 18.965 19.178 3.9426 14.703 6.9461 25.8 9.7995 27.392 0 0 0.21928-8.9404 4.9018-6.7089 4.6825 2.2316 8.7261 13.07 7.8188 27.448-0.90744 14.378 2.5657 25.578 4.8313 28.742 0 0 0.82272-4.9223 3.6762-3.3311 2.8536 1.5911 4.6827 9.0336 6.1925 19.078 1.509 10.044 1.2693 18.314 2.2427 19.497 0.97332 1.1835 11.105 12.125 13.7 14.171-1.888 1.864-1.8314 2.5622-3.5475 3.1828z" fill="#5ab532" stroke="#000" stroke-linecap="round" stroke-linejoin="round" stroke-width="2"/>
<path d="m418.22 217.81c1.5548-1.5732 12.251-12.524 14.044-13.403 4.4477-2.1813 4.6432-0.9887 7.0152-0.55218 6.6643 1.2251 15.442-8.2121 22.558-11.7 7.1165-3.489 18.11-6.1206 36.558-5.0245 18.447 1.096 17.807-17.714 10.287-19.481-7.519-1.7677 1.0738-7.5209 8.1739-8.8197 7.1002-1.2988 22.563 0.60694 26.889-5.3539 3.9772-5.479 7.8885-5.5995 11.95-8.4251 4.0615-2.8256 13.191-17.441 3.623-20.706-9.5668-3.2658-17.59 2.848-18.245-0.16658-0.65499-3.0159 10.624-8.8667 20.241-12.169 9.6177-3.3026 13.142-10.87 15.307-14.498 2.1648-3.6283 9.9568-11.671 2.6158-18.544-4.6326-4.3381-9.0174 3.6404-11.682 0.59352-1.9643-2.2451-0.73993-5.6692 4.9497-10.063 5.6898-4.3931 5.2852-19.852-4.8702-24.69-10.156-4.8397-20.982-0.30242-26.05 8.0859-5.0678 8.3883-11.648 6.4167-11.648 6.4167s6.4109-13.538-5.305-11.966c-11.716 1.5723-16.801 12.151-20.744 20.051-3.9438 7.9017-5.0838 17.38-12.319 15.793 0 0 3.7248-13.441-4.7683-14.025-8.4932-0.58473-15.021 4.4769-18.965 19.178-3.9426 14.703-6.9461 25.8-9.7995 27.392 0 0-0.21928-8.9404-4.9018-6.7089-4.6825 2.2316-8.7261 13.07-7.8188 27.448 0.90744 14.378-2.5657 25.578-4.8313 28.742 0 0-0.82272-4.9223-3.6762-3.3311-2.8536 1.5911-4.6827 9.0336-6.1925 19.078-1.509 10.044-1.2693 18.314-2.2427 19.497-0.97332 1.1835-11.105 12.125-13.7 14.171 1.888 1.864 1.8314 2.5622 3.5475 3.1828z" fill="#5ab532" stroke="#000" stroke-linecap="round" stroke-linejoin="round" stroke-width="1.8351"/>
<path d="m407.37 111.53c-3.2852 0-6.3453 0.95583-8.9252 2.5992 1.0778-2.2038 1.684-4.6806 1.684-7.2996 0-9.1914-7.4505-16.642-16.642-16.642-9.1909 0-16.642 7.4505-16.642 16.642 0 3.1632 0.88266 6.1202 2.4152 8.6386h-51.833v-51.833c2.5184 1.5326 5.4753 2.4152 8.6386 2.4152 9.1914 0 16.642-7.451 16.642-16.642 0-9.1909-7.4505-16.642-16.642-16.642-2.6185 0-5.0952 0.60672-7.2996 1.6845 1.6434-2.5799 2.5992-5.6405 2.5992-8.9256 0-9.1909-7.4505-16.642-16.642-16.642-9.1909 0-16.642 7.451-16.642 16.642 0 3.2852 0.95583 6.3458 2.5992 8.9251-2.2044-1.0773-4.6806-1.684-7.2996-1.684-9.1909 0-16.642 7.451-16.642 16.642 0 9.1909 7.451 16.642 16.642 16.642 3.1632 0 6.1202-0.88266 8.6386-2.4152v51.833h-51.833c1.5326-2.5184 2.4152-5.4753 2.4152-8.6386 0-9.1914-7.451-16.642-16.642-16.642-9.1909 0-16.642 7.4505-16.642 16.642 0 2.619 0.60673 5.0952 1.6845 7.2996-2.5799-1.6434-5.6404-2.5992-8.9256-2.5992-9.1909 0-16.642 7.4505-16.642 16.642 0 9.1909 7.451 16.642 16.642 16.642 3.2852 0 6.3458-0.95583 8.9252-2.5992-1.0773 2.2044-1.684 4.6806-1.684 7.2996 0 9.1909 7.451 16.642 16.642 16.642 9.1909 0 16.642-7.451 16.642-16.642 0-3.1632-0.88266-6.1202-2.4152-8.6386h51.833v51.833c-2.5184-1.5326-5.4753-2.4152-8.6386-2.4152-9.1909 0-16.642 7.451-16.642 16.642 0 9.1914 7.451 16.642 16.642 16.642 2.619 0 5.0952-0.60623 7.2996-1.684-1.6434 2.5799-2.5992 5.6405-2.5992 8.9252 0 9.1914 7.451 16.642 16.642 16.642 9.1914 0 16.642-7.4505 16.642-16.642 0-3.2852-0.95584-6.3453-2.5992-8.9252 2.2044 1.0778 4.6811 1.684 7.2996 1.684 9.1914 0 16.642-7.4505 16.642-16.642 0-9.1909-7.4505-16.642-16.642-16.642-3.1632 0-6.1202 0.88266-8.6386 2.4152v-51.833h51.833c-1.5326 2.5184-2.4152 5.4753-2.4152 8.6386 0 9.1909 7.451 16.642 16.642 16.642 9.1914 0 16.642-7.451 16.642-16.642 0-2.619-0.60621-5.0952-1.684-7.2996 2.5799 1.6434 5.6405 2.5992 8.9252 2.5992 9.1914 0 16.642-7.451 16.642-16.642 0-9.1914-7.4505-16.642-16.642-16.642z" fill="#e20909" stroke="#000" stroke-width="2"/>
</g>
<g>
<path d="m1.5 1.5v458.87c0 166.31 134.31 301.13 300 301.13 165.69 0 300-134.82 300-301.13v-458.87h-600z" fill="url(#a)"/>
<path d="m1.5 1.5v458.87c0 166.31 134.31 301.13 300 301.13 165.69 0 300-134.82 300-301.13v-458.87h-600z" fill="none" stroke="#000" stroke-width="3"/>
</g>
</svg>
